public/images/icons/device_1.svg

<svg width="15" height="15" viewBox="0 0 15 15" fill="none" xmlns="http://www.w3.org/2000/svg">
<path d="M12.7951 6.08005C12.0403 6.08005 11.4235 6.71855 11.4235 7.5C11.4235 8.28145 12.0403 8.91995 12.7951 8.91995C13.5499 8.91995 14.1667 8.28145 14.1667 7.5C14.1667 6.71855 13.5499 6.08005 12.7951 6.08005ZM9.7206 6.24206C9.04862 6.24206 8.50552 6.80432 8.50552 7.5C8.50552 8.19568 9.04862 8.75794 9.7206 8.75794C10.3926 8.75794 10.9357 8.19568 10.9357 7.5C10.9357 6.80432 10.3926 6.24206 9.7206 6.24206ZM9.7206 3.04002C9.04862 3.04002 8.50552 3.60229 8.50552 4.29797C8.50552 4.99365 9.04862 5.55591 9.7206 5.55591C10.3926 5.55591 10.9357 4.99365 10.9357 4.29797C10.9357 3.60229 10.3926 3.04002 9.7206 3.04002ZM9.7206 9.42503C9.04862 9.42503 8.50552 9.98729 8.50552 10.683C8.50552 11.3787 9.04862 11.9409 9.7206 11.9409C10.3926 11.9409 10.9357 11.3787 10.9357 10.683C10.9357 9.98729 10.3926 9.42503 9.7206 9.42503ZM6.64609 6.39454C6.05696 6.39454 5.5783 6.89009 5.5783 7.5C5.5783 8.10991 6.05696 8.60547 6.64609 8.60547C7.23522 8.60547 7.71388 8.10991 7.71388 7.5C7.71388 6.89009 7.23522 6.39454 6.64609 6.39454ZM6.64609 3.20203C6.05696 3.20203 5.5783 3.69759 5.5783 4.3075C5.5783 4.91741 6.05696 5.41296 6.64609 5.41296C7.23522 5.41296 7.71388 4.91741 7.71388 4.3075C7.71388 3.69759 7.23522 3.20203 6.64609 3.20203ZM6.64609 9.59657C6.05696 9.59657 5.5783 10.0921 5.5783 10.702C5.5783 11.3119 6.05696 11.8075 6.64609 11.8075C7.23522 11.8075 7.71388 11.3119 7.71388 10.702C7.70468 10.0921 7.23522 9.59657 6.64609 9.59657ZM6.64609 12.7891C6.05696 12.7891 5.5783 13.2846 5.5783 13.8945C5.5783 14.5044 6.05696 15 6.64609 15C7.23522 15 7.71388 14.5044 7.71388 13.8945C7.70468 13.2846 7.23522 12.7891 6.64609 12.7891ZM6.64609 0C6.05696 0 5.5783 0.495553 5.5783 1.10546C5.5783 1.71538 6.05696 2.21093 6.64609 2.21093C7.23522 2.21093 7.71388 1.71538 7.71388 1.10546C7.71388 0.495553 7.23522 0 6.64609 0ZM3.57158 6.55655C3.0653 6.55655 2.66028 6.97586 2.66028 7.5C2.66028 8.02414 3.0653 8.44346 3.57158 8.44346C4.07786 8.44346 4.48289 8.02414 4.48289 7.5C4.48289 6.97586 4.06866 6.55655 3.57158 6.55655ZM3.57158 9.73952C3.0653 9.73952 2.66028 10.1588 2.66028 10.683C2.66028 11.2071 3.0653 11.6264 3.57158 11.6264C4.07786 11.6264 4.48289 11.2071 4.48289 10.683C4.48289 10.1588 4.06866 9.73952 3.57158 9.73952ZM3.57158 3.37357C3.0653 3.37357 2.66028 3.79289 2.66028 4.31703C2.66028 4.84117 3.0653 5.26048 3.57158 5.26048C4.07786 5.26048 4.48289 4.84117 4.48289 4.31703C4.48289 3.79289 4.06866 3.37357 3.57158 3.37357ZM0.764024 6.70902C0.340589 6.70902 0 7.06163 0 7.5C0 7.93837 0.340589 8.29098 0.764024 8.29098C1.18746 8.29098 1.52805 7.93837 1.52805 7.5C1.52805 7.06163 1.18746 6.70902 0.764024 6.70902Z" fill="#181A1C"/>
</svg>

<svg xmlns="http://www.w3.org/2000/svg" width="15" height="15" fill="none"><path fill="#181A1C" d="M12.795 6.08c-.755 0-1.371.639-1.371 1.42 0 .781.616 1.42 1.371 1.42s1.372-.639 1.372-1.42c0-.781-.617-1.42-1.372-1.42Zm-3.074.162c-.672 0-1.215.562-1.215 1.258s.543 1.258 1.215 1.258 1.215-.562 1.215-1.258-.543-1.258-1.215-1.258Zm0-3.202c-.672 0-1.215.562-1.215 1.258s.543 1.258 1.215 1.258 1.215-.562 1.215-1.258S10.393 3.04 9.72 3.04Zm0 6.385c-.672 0-1.215.562-1.215 1.258s.543 1.258 1.215 1.258 1.215-.562 1.215-1.258-.543-1.258-1.215-1.258Zm-3.075-3.03c-.589 0-1.068.495-1.068 1.105s.479 1.105 1.068 1.105c.59 0 1.068-.495 1.068-1.105s-.479-1.105-1.068-1.105Zm0-3.193c-.589 0-1.068.496-1.068 1.106 0 .61.479 1.105 1.068 1.105.59 0 1.068-.496 1.068-1.106 0-.61-.479-1.105-1.068-1.105Zm0 6.395c-.589 0-1.068.495-1.068 1.105s.479 1.105 1.068 1.105c.59 0 1.068-.495 1.068-1.105-.01-.61-.479-1.105-1.068-1.105Zm0 3.192c-.589 0-1.068.496-1.068 1.106 0 .61.479 1.105 1.068 1.105.59 0 1.068-.496 1.068-1.105-.01-.61-.479-1.106-1.068-1.106ZM6.646 0c-.589 0-1.068.496-1.068 1.105 0 .61.479 1.106 1.068 1.106.59 0 1.068-.496 1.068-1.106C7.714.495 7.235 0 6.646 0ZM3.572 6.557c-.507 0-.912.419-.912.943s.405.943.912.943c.506 0 .91-.419.91-.943s-.413-.943-.91-.943Zm0 3.183c-.507 0-.912.419-.912.943s.405.943.912.943c.506 0 .91-.419.91-.943s-.413-.943-.91-.943Zm0-6.366c-.507 0-.912.419-.912.943s.405.943.912.943c.506 0 .91-.419.91-.943s-.413-.943-.91-.943ZM.764 6.709A.776.776 0 0 0 0 7.5c0 .438.34.791.764.791a.776.776 0 0 0 .764-.791.776.776 0 0 0-.764-.791Z"/></svg>
